public/logo-white.svg

<svg width="1044" height="241" viewBox="0 0 1044 241" fill="none" xmlns="http://www.w3.org/2000/svg">
    <path d="M323.487 27.6415H283.212V210.944H323.487V174.435L338.55 158.736L372.269 210.944H418.091L365.891 130.359L416.133 78.0382H366.402L323.487 123.994V27.6415Z" fill="white"/>
    <path d="M740.62 37.3422H700.819V78.0382H677.75V110.86H700.819V180.81C700.819 190.591 703.306 198.202 708.544 203.354C713.777 208.502 721.499 210.944 731.426 210.944H766.292V178.831H740.62V110.86H766.292V78.0382H740.62V37.3422Z" fill="white"/>
    <path fill-rule="evenodd" clip-rule="evenodd" d="M479.561 75.6721C459.903 75.6721 443.994 81.7431 431.993 93.9872L431.983 93.9981C420.133 106.335 414.291 123.23 414.291 144.491C414.291 165.516 420.054 182.324 431.736 194.736C443.436 207.168 459.603 213.31 480.034 213.31C496.679 213.31 510.721 209.385 522.066 201.444L522.075 201.438L522.084 201.432C533.422 193.251 540.502 182.439 543.262 169.046L543.634 167.238H504.142L503.802 168.274C502.429 172.466 499.649 175.858 495.35 178.454C491.134 180.968 485.973 182.262 479.797 182.262C472.284 182.262 466.361 180.184 461.881 176.147C457.413 172.043 455.157 166.703 455.157 159.988V154.513H541.233L541.389 153.184C542.027 147.766 542.346 142.463 542.346 137.274C542.346 118.267 536.601 103.207 524.964 92.297C513.588 81.1712 498.398 75.6721 479.561 75.6721ZM461.617 112.386C465.934 108.654 471.707 106.719 479.088 106.719C486.226 106.719 491.844 108.612 496.087 112.269L496.097 112.278L496.108 112.287C500.4 115.852 502.544 120.507 502.544 126.391V127.252H455.157V126.864C455.157 120.808 457.312 116.034 461.605 112.396L461.617 112.386Z" fill="white"/>
    <path fill-rule="evenodd" clip-rule="evenodd" d="M611.822 75.6721C594.969 75.6721 581.44 79.4259 571.396 87.1017L571.391 87.1053C561.367 94.8285 556.372 105.539 556.372 119.056C556.372 129.61 559.676 138.259 566.374 144.853C573.034 151.41 582.911 155.799 595.818 158.156L595.831 158.159L618.933 161.95L618.953 161.953C622.83 162.485 625.72 163.531 627.739 164.993L627.749 165L627.758 165.007C629.605 166.3 630.875 168.723 631.257 172.716C631.239 176.299 629.816 179.004 626.938 180.991L626.924 181.001C624.047 183.035 619.751 184.155 613.834 184.155C607.335 184.155 602.459 182.74 599.025 180.096C595.742 177.509 594.044 173.8 594.044 168.743V167.238H554.361V168.743C554.361 182.296 559.7 193.192 570.333 201.29L570.338 201.293C581.014 209.362 595.489 213.31 613.597 213.31C631.307 213.31 645.466 209.481 655.905 201.652C666.483 193.778 671.769 182.829 671.769 168.979C671.769 158.072 668.647 149.253 662.262 142.701C655.903 136.177 646.474 132.072 634.179 130.228L634.168 130.226L611.811 126.559L611.793 126.556C609.018 126.171 607.119 125.9 606.089 125.742C605.269 125.531 604.196 125.14 602.851 124.542C601.591 123.982 600.339 123.166 599.097 122.07C597.327 120.495 596.41 118.4 596.41 115.625C596.41 112.111 597.679 109.549 600.169 107.731C602.736 105.859 606.479 104.827 611.586 104.827C617.45 104.827 621.609 106.03 624.309 108.193C626.953 110.312 628.426 113.539 628.537 118.146L628.572 119.614H668.149L668.1 118.062C667.692 105.085 662.439 94.7181 652.364 87.0993C642.32 79.4243 628.751 75.6721 611.822 75.6721ZM655.003 200.448L655.905 201.652L655.901 201.655L655.003 200.448ZM598.099 181.283L599.018 180.091L599.025 180.096L599.03 180.1L598.099 181.283ZM632.762 172.647L631.263 172.785L631.257 172.716L631.257 172.647H632.762Z" fill="white"/>
    <path fill-rule="evenodd" clip-rule="evenodd" d="M930.292 75.6721C912.724 75.6721 898.493 79.6253 887.748 87.6839C877.024 95.7066 871.165 107.173 870.113 121.906L869.998 123.518H909.329L909.433 122.125C909.803 117.171 911.589 113.524 914.682 110.993L914.685 110.991C917.876 108.367 922.461 106.956 928.635 106.956C934.847 106.956 939.227 108.443 942.057 111.152C944.875 113.849 946.414 118.004 946.414 123.906V129.973H913.611C898.773 129.973 886.836 133.665 877.973 141.216C869.151 148.718 864.785 159.021 864.785 171.937C864.785 184.417 868.648 194.534 876.482 202.12L876.494 202.131C884.403 209.629 894.938 213.31 907.932 213.31C917.841 213.31 926.611 211.294 934.198 207.215L934.209 207.209C941.114 203.423 946.016 198.432 948.797 192.219L949.154 194.419L949.158 194.439C950.153 200.078 952.518 204.386 956.398 207.12L956.407 207.126L956.417 207.133C960.264 209.756 966.077 210.944 973.59 210.944H1002.3V182.262H986.334V124.616C986.334 111.078 981.821 99.5067 972.796 89.9901C963.873 80.3291 949.575 75.6721 930.292 75.6721ZM905.178 166.258C905.178 162.46 906.452 159.821 908.85 158.068C911.336 156.251 915.248 155.223 920.827 155.223H946.414V158.332C946.414 165.888 944.123 171.738 939.66 176.057C935.194 180.3 929.056 182.499 921.064 182.499C915.409 182.499 911.442 181.443 908.918 179.571C906.478 177.762 905.178 175.033 905.178 171.109V166.258Z" fill="white"/>
    <path d="M818.496 78.0382C804.834 78.0382 795.324 81.6282 790.812 89.4374C788.858 92.7759 787.494 96.0695 786.744 99.316L786.741 99.3301L786.738 99.3444C786.079 102.477 785.76 106.295 785.76 110.775V210.944H825.561V110.86H864.128V78.0382H818.496Z" fill="white"/>
    <path d="M1028.68 211.054C1024.39 211.054 1020.83 209.693 1018.01 206.971C1015.3 204.131 1013.95 200.639 1013.95 196.497C1013.95 192.355 1015.3 188.923 1018.01 186.201C1020.83 183.361 1024.39 181.941 1028.68 181.941C1032.85 181.941 1036.29 183.361 1039 186.201C1041.71 188.923 1043.06 192.355 1043.06 196.497C1043.06 200.639 1041.71 204.131 1039 206.971C1036.29 209.693 1032.85 211.054 1028.68 211.054Z" fill="#F62E76"/>
    <path d="M115.37 101.148C118.635 97.8839 123.927 97.8839 127.191 101.148L140.609 114.566C143.873 117.83 143.873 123.122 140.609 126.386L127.191 139.804C123.927 143.068 118.635 143.068 115.37 139.804L101.953 126.387C98.6885 123.122 98.6885 117.83 101.953 114.566L115.37 101.148Z" fill="#A950FF"/>
    <path d="M177.17 101.041C180.376 97.8354 185.574 97.8354 188.78 101.041L202.409 114.67C205.615 117.876 205.615 123.074 202.409 126.28L188.78 139.909C185.574 143.115 180.376 143.115 177.17 139.909L163.541 126.28C160.335 123.074 160.335 117.876 163.541 114.67C166.747 111.465 177.17 101.041 177.17 101.041Z" fill="#A950FF"/>
    <path d="M115.476 39.3488C118.682 36.143 123.88 36.143 127.085 39.3488L140.715 52.978C143.92 56.1838 143.92 61.3814 140.715 64.5872L127.085 78.2164C123.88 81.4222 118.682 81.4222 115.476 78.2164L101.847 64.5872C98.6412 61.3814 98.6412 56.1838 101.847 52.978L115.476 39.3488Z" fill="#E9C1FF"/>
    <path d="M109.765 83.7194C113.029 86.9835 113.029 92.2758 109.765 95.54L96.347 108.958C93.0829 112.222 87.7906 112.222 84.5264 108.958L71.1087 95.54C67.8445 92.2758 67.8445 86.9836 71.1087 83.7194L84.5264 70.3016C87.7906 67.0374 93.0829 67.0374 96.347 70.3016L109.765 83.7194Z" fill="#CD88FF"/>
    <path d="M79.0222 114.67C82.228 117.876 82.228 123.074 79.0222 126.28L65.393 139.909C62.1872 143.115 56.9896 143.115 53.7838 139.909L40.1546 126.28C36.9488 123.074 36.9488 117.876 40.1546 114.67L53.7838 101.041C56.9896 97.8354 62.1872 97.8353 65.393 101.041L79.0222 114.67Z" fill="#A950FF"/>
    <path d="M171.457 83.7194C174.721 86.9835 174.721 92.2758 171.457 95.54L158.039 108.958C154.775 112.222 149.482 112.222 146.218 108.958L132.8 95.54C129.536 92.2758 129.536 86.9836 132.8 83.7194L146.218 70.3016C149.482 67.0374 154.775 67.0374 158.039 70.3016L171.457 83.7194Z" fill="#CD88FF"/>
    <path d="M134.486 171.841C141.778 179.133 141.778 190.956 134.486 198.249C127.193 205.541 115.37 205.541 108.078 198.249C100.785 190.956 100.785 179.133 108.078 171.841C115.37 164.548 127.193 164.548 134.486 171.841Z" fill="#F62E76"/>
</svg>

<svg xmlns="http://www.w3.org/2000/svg" width="1044" height="241" fill="none"><path fill="#fff" d="M323.49 27.64H283.2v183.3h40.28v-36.5l15.06-15.7 33.72 52.2h45.82l-52.2-80.58 50.24-52.32H366.4l-42.91 45.95V27.64ZM740.62 37.34h-39.8v40.7h-23.07v32.82h23.07v69.95c0 9.78 2.49 17.4 7.72 22.54 5.24 5.15 12.96 7.6 22.89 7.6h34.86v-32.12h-25.67v-67.97h25.67V78.04h-25.67v-40.7Z"/><path fill="#fff" fill-rule="evenodd" d="M479.56 75.67C459.9 75.67 444 81.74 432 94c-11.86 12.34-17.7 29.24-17.7 50.5 0 21.03 5.76 37.83 17.45 50.25 11.7 12.43 27.86 18.57 48.3 18.57 16.64 0 30.68-3.93 42.03-11.87h.01c11.34-8.19 18.42-19 21.18-32.4l.37-1.8h-39.49l-.34 1.03c-1.37 4.2-4.15 7.59-8.45 10.18-4.22 2.52-9.38 3.81-15.55 3.81-7.52 0-13.44-2.08-17.92-6.11-4.47-4.1-6.72-9.45-6.72-16.16v-5.48h86.07l.16-1.33a136 136 0 0 0 .96-15.9c0-19.01-5.75-34.07-17.39-44.98-11.37-11.13-26.56-16.63-45.4-16.63Zm-17.94 36.72c4.31-3.74 10.09-5.67 17.47-5.67 7.14 0 12.75 1.9 17 5.55l.02.02c4.29 3.56 6.43 8.22 6.43 14.1v.86h-47.38v-.39c0-6.05 2.15-10.83 6.44-14.46l.02-.01ZM611.82 75.67c-16.85 0-30.38 3.76-40.42 11.43-10.03 7.73-15.03 18.44-15.03 31.96 0 10.55 3.3 19.2 10 25.8 6.66 6.55 16.54 10.94 29.45 13.3h.01l23.1 3.79h.02c3.88.54 6.77 1.58 8.79 3.04v.01h.02c1.85 1.3 3.12 3.72 3.5 7.72a9.48 9.48 0 0 1-4.32 8.27l-.02.01c-2.87 2.03-7.17 3.16-13.09 3.16-6.5 0-11.37-1.42-14.8-4.06-3.29-2.6-4.99-6.3-4.99-11.36v-1.5h-39.68v1.5c0 13.56 5.34 24.45 15.97 32.55 10.68 8.07 25.16 12.02 43.27 12.02 17.7 0 31.87-3.83 42.3-11.66 10.58-7.87 15.87-18.82 15.87-32.67 0-10.9-3.12-19.73-9.5-26.28-6.37-6.52-15.8-10.63-28.1-12.47l-22.36-3.67h-.02c-2.77-.39-4.67-.66-5.7-.82-.82-.2-1.9-.6-3.24-1.2a14.77 14.77 0 0 1-3.75-2.47c-1.77-1.57-2.69-3.67-2.69-6.44 0-3.52 1.27-6.08 3.76-7.9 2.57-1.87 6.3-2.9 11.42-2.9 5.86 0 10.02 1.2 12.72 3.36 2.64 2.12 4.12 5.35 4.23 9.96l.03 1.46h39.58l-.05-1.55c-.4-12.98-5.66-23.34-15.74-30.96-10.04-7.68-23.6-11.43-40.54-11.43ZM655 200.45l.9 1.2-.9-1.2Zm-56.9-19.17.92-1.19.01.01-.93 1.18Zm34.66-8.63-1.5.13v-.13h1.5ZM930.3 75.67c-17.58 0-31.8 3.96-42.55 12.01-10.73 8.03-16.59 19.5-17.64 34.23l-.11 1.6h39.33l.1-1.39c.37-4.95 2.16-8.6 5.25-11.13 3.2-2.62 7.78-4.03 13.96-4.03 6.2 0 10.59 1.48 13.42 4.2 2.82 2.69 4.35 6.84 4.35 12.75v6.06h-32.8c-14.84 0-26.77 3.7-35.64 11.25-8.82 7.5-13.19 17.8-13.19 30.72 0 12.48 3.87 22.6 11.7 30.18l.01.01c7.91 7.5 18.45 11.18 31.44 11.18 9.91 0 18.68-2.02 26.27-6.1 6.91-3.79 11.82-8.78 14.6-15l.35 2.2v.03c1 5.64 3.37 9.95 7.25 12.68l.02.01c3.84 2.63 9.66 3.81 17.17 3.81h28.71v-28.68h-15.97v-57.64c0-13.54-4.5-25.11-13.53-34.63-8.93-9.66-23.22-14.32-42.5-14.32Zm-25.12 90.59c0-3.8 1.27-6.44 3.67-8.2 2.49-1.8 6.4-2.84 11.98-2.84h25.58v3.11c0 7.56-2.29 13.4-6.75 17.73-4.47 4.24-10.6 6.44-18.6 6.44-5.65 0-9.62-1.06-12.14-2.93-2.44-1.8-3.74-4.54-3.74-8.46v-4.85Z" clip-rule="evenodd"/><path fill="#fff" d="M818.5 78.04c-13.67 0-23.18 3.59-27.69 11.4a35.43 35.43 0 0 0-4.07 9.88v.02a56.61 56.61 0 0 0-.98 11.44v100.16h39.8V110.86h38.57V78.04H818.5Z"/><path fill="#F62E76" d="M1028.68 211.05c-4.29 0-7.85-1.36-10.67-4.08a14.6 14.6 0 0 1-4.06-10.47c0-4.15 1.35-7.58 4.06-10.3 2.82-2.84 6.38-4.26 10.67-4.26 4.17 0 7.61 1.42 10.32 4.26 2.71 2.72 4.06 6.16 4.06 10.3a14.6 14.6 0 0 1-4.06 10.47c-2.71 2.72-6.15 4.08-10.32 4.08Z"/><path fill="#A950FF" d="M115.37 101.15a8.36 8.36 0 0 1 11.82 0l13.42 13.42a8.36 8.36 0 0 1 0 11.82l-13.42 13.41a8.36 8.36 0 0 1-11.82 0l-13.42-13.41a8.36 8.36 0 0 1 0-11.82l13.42-13.42ZM177.17 101.04c3.2-3.2 8.4-3.2 11.61 0l13.63 13.63c3.2 3.2 3.2 8.4 0 11.61l-13.63 13.63a8.21 8.21 0 0 1-11.61 0l-13.63-13.63a8.21 8.21 0 0 1 0-11.61l13.63-13.63Z"/><path fill="#E9C1FF" d="M115.48 39.35a8.2 8.2 0 0 1 11.6 0l13.64 13.63c3.2 3.2 3.2 8.4 0 11.6l-13.64 13.64a8.2 8.2 0 0 1-11.6 0l-13.63-13.63a8.2 8.2 0 0 1 0-11.61l13.63-13.63Z"/><path fill="#CD88FF" d="M109.77 83.72a8.36 8.36 0 0 1 0 11.82l-13.42 13.42a8.36 8.36 0 0 1-11.82 0L71.1 95.54a8.36 8.36 0 0 1 0-11.82L84.53 70.3a8.36 8.36 0 0 1 11.82 0l13.42 13.42Z"/><path fill="#A950FF" d="M79.02 114.67c3.2 3.2 3.2 8.4 0 11.61L65.4 139.91a8.2 8.2 0 0 1-11.6 0l-13.64-13.63a8.21 8.21 0 0 1 0-11.61l13.63-13.63a8.2 8.2 0 0 1 11.61 0l13.63 13.63Z"/><path fill="#CD88FF" d="M171.46 83.72a8.36 8.36 0 0 1 0 11.82l-13.42 13.42a8.36 8.36 0 0 1-11.82 0L132.8 95.54a8.36 8.36 0 0 1 0-11.82l13.42-13.42a8.36 8.36 0 0 1 11.82 0l13.42 13.42Z"/><path fill="#F62E76" d="M134.49 171.84a18.67 18.67 0 1 1-26.41 26.4 18.67 18.67 0 0 1 26.4-26.4Z"/></svg>
